X:1
T:Title
%%score { ( 1 3 4 ) | ( 2 5 ) }
L:1/8
M:4/4
K:D
V:1 treble nm="Grand Piano"
V:3 treble 
V:4 treble 
V:2 bass 
V:5 bass 
V:1
 z4 z2[Q:1/4=100] [FA]2 | [FA]3 [GB] [FA]>F D>E | F6 [FA]2 | [Fd]3 [Fd] [Ac]2 [GB]2 | [FA]6 [DF]2 | %5
 [EG]3 [FA] [EG]>[DF] [CE]>[DF] | [EG]6 [FA]2 | [Ac]3 [GB] [FA]2 [EG]2 | [DF]6 [FA]2 | %9
 [FA]3 [GB] [FA]>F D>E | F6 [EA]2 | [Dd]3 [Dd] [Ec]2 [DB]2 | [CA]6 [GA]2 | %13
 [Fd]3 [FA] [FA]>[DF] [DG]>[FA] | B6 B2 | A3 d d2 [Gc]2 |[M:15/16] [Fd]3/2-[Fd]3/2- [Fd]3 z3/2 | %17
[M:5/16] A<Bc/ |[M:4/4] d6 z2 |[M:3/4] A6 |[M:1/4] [FA]2 |[M:4/4] B3 B z4 | c6 z2 | d6 z2 | %24
[M:3/4] B6 |[M:1/4] B2 |[M:4/4] A3 d z4 |[M:7/8] d-d-d- d- d3 |] %28
V:2
 z4 z2 [D,D]2 | [D,D]3 [D,D] [D,D]>[D,A,D] [D,F,]>[D,G,D] | [D,A,D]6 [D,D]2 | %3
 [D,A,]3 [D,D] [D,D]2 [D,D]2 | [D,D]6 [D,A,]2 | [A,,A,]3 [A,,A,] [A,,A,]>[A,,A,] [A,,A,]>[A,,A,] | %6
 [A,,A,]6 [A,,A,]2 | [A,,A,]3 [A,,A,] [A,,A,]2 [A,,A,]2 | [D,A,]6 [D,D]2 | %9
 [D,D]3 [D,D] [D,D]>[D,A,D] [D,F,]>[D,G,D] | [D,A,D]6 [C,A,]2 | [B,,B,]3 [B,,B,] [E,A,]2 [E,^G,]2 | %12
 [A,,A,]6 [C,A,]2 | [D,A,]3 [D,D] [D,D]>[D,=C] [D,B,]>[D,D] | [G,DG]6 [^G,D=F]2 | %15
 [A,DF]3 [A,DF] [A,E]2[K:bass] [A,,A,]2 |[M:15/16] [D,A,]3/2-[D,A,]3/2- [D,A,]3 z3/2 | %17
[M:5/16] z5/2 |[M:4/4] z z/ [D,A,]/ [D,A,]>[D,A,] [D,A,]2 z2 | %19
[M:3/4] z z/ [D,D]/ [D,D]>[D,D] [D,D]2 |[M:1/4] [D,D]2 | %21
[M:4/4][K:treble] [G,DG]>[G,D][K:bass] [G,D]>[G,D] [E,E]2 [E,E]2 | z4 E2[K:bass] z2 | z4 A,2 z2 | %24
[M:3/4] G,>[K:treble][G,D] [G,D]>[G,D] [G,D]2 |[M:1/4] [^G,D=F]2 | %26
[M:4/4] [A,DF]>[K:bass][A,D] [A,D]>[A,D] [A,E]2 [A,,A,]2 | %27
[M:7/8] [D,A,]>[D,A,][D,B,]>[D,B,] [D,A,]3 |] %28
V:3
 x8 | x8 | x8 | x8 | x8 | x8 | x8 | x8 | x8 | x8 | x8 | x8 | x8 | x8 | x8 | x8 |[M:15/16] x15/2 | %17
[M:5/16] x5/2 |[M:4/4] z z/ F/ F>F z z/ A/ F>G |[M:3/4] z z/ F/ F>F F2 |[M:1/4] x2 | %21
[M:4/4] z z/ G/ z z/ G/ [^GB]2 [Gd]2 | z z/ A/ A>A A>A B>c | z z/ F/ F>F F>F G>A | %24
[M:3/4] z z/ G/ G>G G2 |[M:1/4] x2 |[M:4/4] z z/ F/ z z/ F/ d2 [Gc]2 |[M:7/8] F>FG>G F3 |] %28
V:4
 x8 | x8 | x8 | x8 | x8 | x8 | x8 | x8 | x8 | x8 | x8 | x8 | x8 | x8 | x8 | x8 |[M:15/16] x15/2 | %17
[M:5/16] x5/2 |[M:4/4] z4 F2 z2 |[M:3/4] x6 |[M:1/4] x2 |[M:4/4] z2 G2 z4 | x8 | x8 |[M:3/4] x6 | %25
[M:1/4] x2 |[M:4/4] z2 F2 z4 |[M:7/8] x7 |] %28
V:5
 x8 | x8 | x8 | x8 | x8 | x8 | x8 | x8 | x8 | x8 | x8 | x8 | x8 | x8 | x8 | x6[K:bass] x2 | %16
[M:15/16] x15/2 |[M:5/16] x5/2 |[M:4/4] x8 |[M:3/4] x6 |[M:1/4] x2 | %21
[M:4/4][K:treble] x2[K:bass] x6 | [A,EA]>[A,E] [A,E]>[A,E] A,>[K:bass]G, F,>E, | %23
 D,>[D,A,] [D,A,]>[D,A,] D,>D, E,>F, |[M:3/4] x3/2[K:treble] x9/2 |[M:1/4] x2 | %26
[M:4/4] x3/2[K:bass] x13/2 |[M:7/8] x7 |] %28

